X:220
T:Slipstream
C:Bela Fleck
N:From the CD "Drive" TablEdited by Jeff Hoelter Chords by Ed Ashley
L:1/8
Q:1/4=240
M:4/4
K:C
z8 | 
M:3/4
cd ed c2 | "G"d3e3 | "Am"c3A3 | "G"B3c3 | "Am"A6 | 
M:4/4
|: z2 GA BA GE | "Am"A2 {G}A6 | "Am"z2 GA BA GE | 
M:3/4
"Am"A3"Em?"B3 | 
M:2/4
"G"G4 | 
M:3/4
GA BA GE | 
M:4/4
"Am"A2 {G}A6 | "Am"z2 GA BA GE | 
M:3/4
"Am"A3"Em?"B3 | "C"c6 | 
M:4/4
"G"cd de dc B2 | "F"Bc cd cB A2 | "Em"B7/2G4z/ | 
M:3/4
"Dm?"G3A3 | cd ed c2 | "G"d3e3 | "Am"c3A3 | "G"B3c3 | "Am"A6 :| cd ed c2 | "G"d3e3 | 
"Am"c3A3 | "G"B3d3 | "C"{d}e2 ee ez | cd ed c2 | "G"d3e3 | "Am"c3A3 | "G"B3G3 | 
"Em"E6 | 
 

